public/images/icons/icon_prikrytie.svg

<svg xmlns="http://www.w3.org/2000/svg" width="512" height="512" style="shape-rendering:geometricPrecision;text-rendering:geometricPrecision;image-rendering:optimizeQuality;fill-rule:evenodd;clip-rule:evenodd"><path d="M246.5 12.5q18.587-2.232 35 6.5 10 9 0 18-26.019 12.998-52 0-8.048-6.73-2.5-15.5 8.658-7.209 19.5-9M214.5 62.5q40.517 21.757 81 0a3337 3337 0 0 1 22 76.5q-2.42 8.842-10 14-33.662 16.793-71 11-20.3-2.407-37-14-4.575-4.65-6-11a3326 3326 0 0 0 21-76.5M183.5 175.5q32.991 20.25 72 19 38.574 1.484 71-19a2869 2869 0 0 1 20.5 72q.998 7.021-3 13-10.761 11.25-25.5 16.5-45.065 14.084-92 8-24.706-3.05-47-14-12.84-6.577-16-20.5 10.007-37.518 20-75" style="opacity:1"/><path d="M152.5 288.5q31.714 21.16 70 25.5 58.77 8.519 114-13a140 140 0 0 0 21-12.5 1758 1758 0 0 1 19.5 69q1.186 6.639-1 13-9.576 15.177-26.5 21.5-45.325 17.414-94 16.5-44.623.304-87-13.5-17.871-5.802-30.5-19.5-6.11-8.038-4-18a5275 5275 0 0 0 18.5-69" style="opacity:1"/><path d="M105.5 341.5q1.762-.329 3 1-12.648 32.658 12 57.5 24.331 19.917 55 28 73.657 17.243 148 3 37.964-7.111 67.5-31.5 23.72-24.844 11.5-57l1.5-1a3493 3493 0 0 1 90.5 34.5 20.9 20.9 0 0 1 4.5 8.5q1.69 11.318-2 22-3.839 4.547-9.5 6.5l-227 85a25.2 25.2 0 0 1-10 0 48947 48947 0 0 1-233-88q-4.45-3.15-5.5-8.5a72.5 72.5 0 0 1 0-17q1.272-4.797 4.5-8.5a78555 78555 0 0 1 89-34.5" style="opacity:1"/></svg>

<?xml version="1.0" encoding="UTF-8"?>
<!DOCTYPE svg PUBLIC "-//W3C//DTD SVG 1.1//EN" "http://www.w3.org/Graphics/SVG/1.1/DTD/svg11.dtd">
<svg xmlns="http://www.w3.org/2000/svg" version="1.1" width="512px" height="512px" style="shape-rendering:geometricPrecision; text-rendering:geometricPrecision; image-rendering:optimizeQuality; fill-rule:evenodd; clip-rule:evenodd" xmlns:xlink="http://www.w3.org/1999/xlink">
<g><path style="opacity:1" fill="#000000" d="M 246.5,12.5 C 258.891,11.0121 270.558,13.1788 281.5,19C 288.167,25 288.167,31 281.5,37C 264.154,45.6654 246.821,45.6654 229.5,37C 224.135,32.5136 223.301,27.347 227,21.5C 232.772,16.6941 239.272,13.6941 246.5,12.5 Z"/></g>
<g><path style="opacity:1" fill="#000000" d="M 214.5,62.5 C 241.511,77.005 268.511,77.005 295.5,62.5C 303.138,87.9136 310.471,113.414 317.5,139C 315.886,144.895 312.553,149.561 307.5,153C 285.059,164.195 261.392,167.862 236.5,164C 222.966,162.395 210.633,157.729 199.5,150C 196.45,146.9 194.45,143.233 193.5,139C 200.801,113.595 207.801,88.0949 214.5,62.5 Z"/></g>
<g><path style="opacity:1" fill="#000000" d="M 183.5,175.5 C 205.494,189 229.494,195.333 255.5,194.5C 281.216,195.489 304.883,189.156 326.5,175.5C 333.639,199.384 340.472,223.384 347,247.5C 347.665,252.181 346.665,256.514 344,260.5C 336.826,268 328.326,273.5 318.5,277C 288.456,286.389 257.79,289.056 226.5,285C 210.029,282.966 194.363,278.3 179.5,271C 170.94,266.615 165.606,259.782 163.5,250.5C 170.172,225.488 176.838,200.488 183.5,175.5 Z"/></g>
<g><path style="opacity:1" fill="#000000" d="M 152.5,288.5 C 173.643,302.607 196.976,311.107 222.5,314C 261.68,319.679 299.68,315.346 336.5,301C 343.892,297.43 350.892,293.264 357.5,288.5C 364.461,311.339 370.961,334.339 377,357.5C 377.791,361.926 377.457,366.259 376,370.5C 369.616,380.618 360.783,387.785 349.5,392C 319.283,403.609 287.95,409.109 255.5,408.5C 225.751,408.703 196.751,404.203 168.5,395C 156.586,391.132 146.419,384.632 138,375.5C 133.927,370.141 132.594,364.141 134,357.5C 140.327,334.524 146.494,311.524 152.5,288.5 Z"/></g>
<g><path style="opacity:1" fill="#000000" d="M 105.5,341.5 C 106.675,341.281 107.675,341.614 108.5,342.5C 100.068,364.272 104.068,383.439 120.5,400C 136.721,413.278 155.054,422.611 175.5,428C 224.605,439.495 273.938,440.495 323.5,431C 348.809,426.259 371.309,415.759 391,399.5C 406.813,382.937 410.646,363.937 402.5,342.5C 403,342.167 403.5,341.833 404,341.5C 434.332,352.584 464.499,364.084 494.5,376C 496.652,378.469 498.152,381.302 499,384.5C 500.126,392.045 499.46,399.379 497,406.5C 494.441,409.531 491.274,411.698 487.5,413C 411.833,441.333 336.167,469.667 260.5,498C 257.167,498.667 253.833,498.667 250.5,498C 172.756,468.863 95.0889,439.53 17.5,410C 14.5332,407.9 12.6998,405.066 12,401.5C 11.3333,395.833 11.3333,390.167 12,384.5C 12.8485,381.302 14.3485,378.469 16.5,376C 46.2551,364.445 75.9217,352.945 105.5,341.5 Z"/></g>
</svg>
